_includes/icons/color-rar.svg

<svg fill="#666" height="50" viewBox="0 0 48 48" width="50" xmlns="http://www.w3.org/2000/svg"><path d="m40 45h-32v-42h22l10 10z" fill="#ff9100"/><g fill="#ffe0b2"><path d="m38.5 14h-9.5v-9.5z"/><path d="m16.007813 29.363281h-.996094v3.636719h-2.011719v-9.953125h3.207031c1.007813 0 1.785157.261719 2.332032.78125.550781.523438.824218 1.265625.824218 2.226563 0 1.320312-.480468 2.246093-1.441406 2.773437l1.742188 4.074219v.097656h-2.160157zm-.996094-1.675781h1.140625c.402344 0 .703125-.132812.902344-.398437.199218-.265625.300781-.625.300781-1.070313 0-.996094-.390625-1.496094-1.167969-1.496094h-1.175781z"/><path d="m25.496094 30.964844h-2.742188l-.53125 2.035156h-2.125l3.109375-9.953125h1.839844l3.128906 9.953125h-2.144531zm-2.304688-1.675781h1.859375l-.929687-3.550782z"/><path d="m32.007813 29.363281h-.996094v3.636719h-2.011719v-9.953125h3.207031c1.007813 0 1.785157.261719 2.332032.78125.550781.523438.824218 1.265625.824218 2.226563 0 1.320312-.480468 2.246093-1.441406 2.773437l1.742188 4.074219v.097656h-2.160157zm-.996094-1.675781h1.140625c.402344 0 .703125-.132812.902344-.398437.199218-.265625.300781-.625.300781-1.070313 0-.996094-.390625-1.496094-1.167969-1.496094h-1.175781z"/></g></svg>

<svg xmlns="http://www.w3.org/2000/svg" viewBox="0 0 48 48" width="50" height="50" fill="#666"><path d="M 40 45 L 8 45 L 8 3 L 30 3 L 40 13 Z" fill="#ff9100"/><path d="M 38.5 14 L 29 14 L 29 4.5 Z" fill="#ffe0b2"/><path d="M 16.007813 29.363281 L 15.011719 29.363281 L 15.011719 33 L 13 33 L 13 23.046875 L 16.207031 23.046875 C 17.214844 23.046875 17.992188 23.308594 18.539063 23.828125 C 19.089844 24.351563 19.363281 25.09375 19.363281 26.054688 C 19.363281 27.375 18.882813 28.300781 17.921875 28.828125 L 19.664063 32.902344 L 19.664063 33 L 17.503906 33 Z M 15.011719 27.6875 L 16.152344 27.6875 C 16.554688 27.6875 16.855469 27.554688 17.054688 27.289063 C 17.253906 27.023438 17.355469 26.664063 17.355469 26.21875 C 17.355469 25.222656 16.964844 24.722656 16.1875 24.722656 L 15.011719 24.722656 Z" fill="#ffe0b2"/><path d="M 25.496094 30.964844 L 22.753906 30.964844 L 22.222656 33 L 20.097656 33 L 23.207031 23.046875 L 25.046875 23.046875 L 28.175781 33 L 26.03125 33 Z M 23.191406 29.289063 L 25.050781 29.289063 L 24.121094 25.738281 Z" fill="#ffe0b2"/><path d="M 32.007813 29.363281 L 31.011719 29.363281 L 31.011719 33 L 29 33 L 29 23.046875 L 32.207031 23.046875 C 33.214844 23.046875 33.992188 23.308594 34.539063 23.828125 C 35.089844 24.351563 35.363281 25.09375 35.363281 26.054688 C 35.363281 27.375 34.882813 28.300781 33.921875 28.828125 L 35.664063 32.902344 L 35.664063 33 L 33.503906 33 Z M 31.011719 27.6875 L 32.152344 27.6875 C 32.554688 27.6875 32.855469 27.554688 33.054688 27.289063 C 33.253906 27.023438 33.355469 26.664063 33.355469 26.21875 C 33.355469 25.222656 32.964844 24.722656 32.1875 24.722656 L 31.011719 24.722656 Z" fill="#ffe0b2"/></svg>
